X:3083
T:Clarke's Favourite
R:reel
S:(Liz Carroll)
H:
N:
D:Solo Album
Z:Adrian Scahill
M:4/4
L:1/8
K:C
A,DFD A,DFD|(3EDC A,C G,CEC|A,DD2 A,DFD|GCEC D3C|\
A,DFD A,DFD|(3EDC A,C G,CEC|A,DFD CFAF|(3EFG cG EDD2:||\
D2fg efdf|ecc2 acgc|aff2 efdB|cAG_B ADD2|\
D2fg efdf|ecc2 acgc|DEFG (3ABA FA|GEcE ED D2:||


